tools/download-figma-icons/icons/solid/price-tag.svg

<svg width="24" height="24" viewBox="0 0 24 24" fill="none" xmlns="http://www.w3.org/2000/svg">
<path fill-rule="evenodd" clip-rule="evenodd" d="M17.7741 14.0799C17.2191 15.5296 15.8744 16.3771 14.2371 16.3771C13.9671 16.3771 13.6964 16.3553 13.4189 16.3103C12.7807 16.2053 12.1649 15.9871 11.5717 15.6938L10.9635 16.3028C10.8135 16.4453 10.626 16.5203 10.4302 16.5203C10.2427 16.5203 10.047 16.4453 9.89697 16.3028C9.60373 16.0021 9.61198 15.5296 9.90447 15.2363L10.2877 14.8531C9.88272 14.5306 9.50698 14.1624 9.17624 13.7566L8.793 14.1399C8.643 14.2899 8.44725 14.3574 8.25976 14.3574C8.06551 14.3574 7.87727 14.2899 7.72727 14.1399C7.43402 13.8466 7.43402 13.3666 7.72727 13.0809L8.32726 12.4876C8.01226 11.8869 7.78727 11.2494 7.67402 10.5954C7.47227 9.32646 7.74227 8.16248 8.4405 7.31425C9.10124 6.51027 10.1002 6.04453 11.2492 6.00703C11.6692 5.96278 12.0074 6.32277 12.0224 6.73601C12.0374 7.14926 11.7142 7.49425 11.2934 7.50925C10.5727 7.5325 9.98697 7.79424 9.60373 8.26748C9.17624 8.77897 9.02624 9.52221 9.16124 10.3554C9.21374 10.6929 9.32624 11.0237 9.46948 11.3537L10.9785 9.8447C11.2709 9.55221 11.7442 9.55971 12.0374 9.8522C12.3299 10.1454 12.3299 10.6179 12.0374 10.9104L10.2577 12.6834C10.5802 13.0891 10.956 13.4641 11.3692 13.7799L13.1489 12.0069C13.4422 11.7144 13.9221 11.7144 14.2071 12.0069C14.5004 12.3077 14.5004 12.7809 14.2071 13.0734L12.7207 14.5531C13.0289 14.6731 13.3439 14.7788 13.6596 14.8231C14.9736 15.0406 15.9794 14.5606 16.3701 13.5466C16.4601 13.3066 16.5126 13.0209 16.5201 12.6976C16.5358 12.2852 16.8658 11.9394 17.2933 11.9769C17.7066 11.9852 18.0373 12.3301 18.0223 12.7509C18.0073 13.2391 17.9241 13.6824 17.7741 14.0799ZM4.50608 6.00701C3.6796 6.00701 3.00386 5.33127 3.00386 4.50554C3.00386 3.67981 3.6796 3.00332 4.50608 3.00332C5.33107 3.00332 6.00755 3.67981 6.00755 4.50554C6.00755 5.33127 5.33107 6.00701 4.50608 6.00701ZM23.4815 12.1877L11.82 0.517978C11.4818 0.187984 11.0393 0.000488271 10.566 0.000488271H1.77246C0.795978 0.000488271 0.000244136 0.796222 0.000244136 1.7727V10.5655C0.000244136 11.0388 0.18774 11.482 0.517734 11.8195L12.1875 23.4818C12.5332 23.8268 12.9832 24 13.4422 24C13.8922 24 14.3505 23.8268 14.6962 23.4818L23.4815 14.6957C24.1723 14.005 24.1723 12.8785 23.4815 12.1877Z" fill="black"/>
</svg>

<svg xmlns="http://www.w3.org/2000/svg" width="24" height="24" fill="none" viewBox="0 0 24 24"><path fill="currentColor" fill-rule="evenodd" d="M17.774 14.08c-.555 1.45-1.9 2.297-3.537 2.297q-.403 0-.818-.067a6.6 6.6 0 0 1-1.847-.616l-.608.609a.77.77 0 0 1-.534.217.78.78 0 0 1-.533-.217.757.757 0 0 1 .007-1.067l.384-.383a7.3 7.3 0 0 1-1.112-1.096l-.383.383a.75.75 0 0 1-.533.217.747.747 0 0 1-.532-1.277l.6-.592a6.5 6.5 0 0 1-.654-1.893c-.202-1.269.068-2.433.766-3.28.661-.805 1.66-1.27 2.81-1.308.42-.044.757.316.772.729a.75.75 0 0 1-.729.773c-.72.023-1.306.285-1.69.758-.427.512-.577 1.255-.442 2.088.053.338.165.669.308.999l1.51-1.51a.75.75 0 0 1 1.058.008.75.75 0 0 1 0 1.058l-1.78 1.773c.323.406.699.781 1.112 1.097l1.78-1.773a.75.75 0 0 1 1.058 0c.293.3.293.774 0 1.066l-1.486 1.48c.308.12.623.226.939.27 1.314.218 2.32-.262 2.71-1.276.09-.24.143-.526.15-.85.016-.412.346-.758.773-.72a.745.745 0 0 1 .73.774 4.1 4.1 0 0 1-.249 1.329M4.506 6.007a1.506 1.506 0 0 1-1.502-1.501c0-.826.676-1.503 1.502-1.503.825 0 1.502.677 1.502 1.503S5.33 6.007 4.506 6.007m18.976 6.18L11.82.519A1.8 1.8 0 0 0 10.566 0H1.772C.796 0 0 .796 0 1.773v8.793c0 .473.188.916.518 1.253l11.67 11.663a1.78 1.78 0 0 0 2.509 0l8.785-8.786c.69-.691.69-1.817 0-2.508" clip-rule="evenodd"/></svg>
